X: 5618
T: Buttercups And Daisies
R: barndance
M: 4/4
K: Eminor
|:GA|.B2 .E2 ~B3 A|AGFD ~E3 F|GFGA BABd|e2 AB A2 GA|
BABd cBAG|.B2 .B2 ~g3 f|((3efg) ed BABd|F2 GF E2:|
|:(3AB^c|d3 f edcB|.g2 de d2 gf|e^def gfga|.b2 ef e2 dc|
Bdge dBAG|.B2 .B2 ~g3 f|((3efg) ed BABd|F2 GF E2:|

